X: 497
T: Bülbülüm Altın Kafeste
C: (Anonim)
O: Turkey
F: http://compmusic.upf.edu/node/140
N: muhayyerkurdi--turku--aksak--bulbulum_altin--
N: makam= muhayyerkurdi
N: form= turku
N: usul= aksak = 9/8
M: 9/8
L: 1/16
K: C _B   
Q: 1/4=144
%%MIDI tuningsystem comma53
f2ff f2f2 e2f2 agfe d2 | c2 ced2 c2B2 BAAB cdef  | 
w:  ARANAĞME  |   | 
f2ff f2f2 e2f2 agfe d2 | c2 ced2 c2B2 BAA6  | 
w:   |   | 
f2ff f2f2 e2f2 agfe d2 | c2 ced2 c2B2 BAAB cdef  | 
w:  ARANAĞME  |   | 
f2ff f2f2 e2f2 agfe d2 | c2 ced2 c2B2 BAA6  | 
w:   |   | 
a4 a2a2 a3g g{a}gfe d2 | c4d2 e2gf fefg f{g}fg{a}g  | 
w:  *  Bül bü lüm  *  al  |  tın  ka *  fes *  *  *  te    | 
a4 a2a2 a3g g{a}gfe d2 | c4d2 e2gf fefg f{g}fg{a}g  | 
w:  *  Bül bü lüm  *  al  |  tın  ka *  fes *  *  *  te    | 
a4 a2a2 a2g2 agfe d2 | c3ed2 c2B2 BAA{B}A B{c}Bc{d}c  | 
w:  *  Ö ter  â *  hes  |  te  *  *  â hes *  *  te    | 
d4 a2a2 a2g2 agfe d2 | c3ed2 c2B2 BAA3efg  | 
w:  *  Ö ter  â *  hes  |  te  *  *  â hes *  *  te   SAZ  | 
a4 a2a2 a3g g{a}gfe d2 | c4d2 e2f2 fefg f{g}fg{a}g  | 
w:  *  Öt me  bül *  bül   |  yâ rim  *  has *  *  ta    | 
a4 a2a2 a3g g{a}gfe d2 | c4d2 e2f2 fefg f{g}fg{a}g  | 
w:  *  Öt me  bül *  bül   |  yâ rim  *  has *  *  ta    | 
a4 a2a2 a2g2 agfe d2 | c3ed2 c2B2 BAA{B}A B{c}Bc{d}c  | 
w:  *  Ah  ney le *  yim   |  şu  *  *  gön lü *  *  me    | 
d4 a2a2 a2a2 agfe d2 | c3ed2 c2B2 BAAB cdef  | 
w:  *  Has ret  kal *  dım   |  sev *  *  di ği *  *  me   SAZ  | 
f2ff f2f2 e2f2 agfe d2 | c2 ced2 c2B2 BAAB cdef  | 
w:  Ben  sa na  da ya na mam  yâ *  rim    |  Ben  sa na  al da na *  *  mam   *  SAZ  | 
f2ff f2f2 e2f2 agfe d2 | c2 ced2 c2B2 BAAB cdef  | 
w:  Ben  sa na  da ya na mam  yâ *  rim    |  Ben  sa na  al da na *  *  mam   *  SAZ  | 
f2ff f2f2 e2f2 agfe d2 | c2 ced2 c2B2 BAAB cdef  | 
w:  ARANAĞME  |   | 
f2ff f2f2 e2f2 agfe d2 | c2 ced2 c2B2 BAA6  | 
w:   |   | 
f2ff f2f2 e2f2 agfe d2 | c2 ced2 c2B2 BAAB cdef  | 
w:  ARANAĞME  |   | 
f2ff f2f2 e2f2 agfe d2 | c2 ced2 c2B2 BAA6  | 
w:   |   | 
a4 a2a2 a3g g{a}gfe d2 | c4d2 e2gf fefg f{g}fg{a}g  | 
w:  *  Bül bü lüm  *  al  |  tın  ka *  fes *  *  *  te    | 
a4 a2a2 a3g g{a}gfe d2 | c4d2 e2gf fefg f{g}fg{a}g  | 
w:  *  Bül bü lüm  *  al  |  tın  ka *  fes *  *  *  te    | 
a4 a2a2 a2g2 agfe d2 | c3ed2 c2B2 BAA{B}A B{c}Bc{d}c  | 
w:  *  Ö ter  â *  hes  |  te  *  *  â hes *  *  te    | 
d4 a2a2 a2g2 agfe d2 | c3ed2 c2B2 BAA3efg  | 
w:  *  Ö ter  â *  hes  |  te  *  *  â hes *  *  te   SAZ  | 
a4 a2a2 a3g g{a}gfe d2 | c4d2 e2f2 fefg f{g}fg{a}g  | 
w:  *  Öt me  bül *  bül   |  yâ rim  *  has *  *  ta    | 
a4 a2a2 a3g g{a}gfe d2 | c4d2 e2f2 fefg f{g}fg{a}g  | 
w:  *  Öt me  bül *  bül   |  yâ rim  *  has *  *  ta    | 
a4 a2a2 a2g2 agfe d2 | c3ed2 c2B2 BAA{B}A B{c}Bc{d}c  | 
w:  *  Ah  ney le *  yim   |  şu  *  *  gön lü *  *  me    | 
d4 a2a2 a2a2 agfe d2 | c3ed2 c2B2 BAAB cdef  | 
w:  *  Has ret  kal *  dım   |  sev *  *  di ği *  *  me   SAZ  | 
f2ff f2f2 e2f2 agfe d2 | c2 ced2 c2B2 BAA|
w:  Ben  sa na  da ya na mam  yâ *  rim    |  Ben  sa na  al da na *  *  mam    | 


